icons/video-filled.svg

<svg width="24" height="24" viewBox="0 0 24 24" fill="none" xmlns="http://www.w3.org/2000/svg">
<path fill-rule="evenodd" clip-rule="evenodd" d="M4.015 4.00501C6.03 3.99801 12.992 3.99801 14.996 4.00501C16.332 4.01001 17 4.67601 17 6.00501V9.01301L20.403 7.81001C20.909 7.63401 21.301 7.63401 21.578 7.81001C21.856 7.98601 21.997 8.28601 22 8.71101V15.387C22.017 15.741 21.876 16.007 21.578 16.184C21.28 16.361 20.933 16.391 20.538 16.274L17 15.004V18.005C17 19.338 16.333 20.005 15 20.005H4.014C2.671 20.005 2 19.339 2 18.005V6.01801C2 4.68101 2.672 4.01001 4.015 4.00501ZM6 15.005C5.333 14.998 5 15.33 5 16C5 16.67 5.333 17.005 6 17.005H10C10.667 17.005 11 16.67 11 16C11 15.33 10.667 14.998 10 15.005H6Z" fill="#3A3A47"/>
</svg>

<svg xmlns="http://www.w3.org/2000/svg" width="24" height="24" viewBox="0 0 24 24">
    <path fill="#3A3A47" fill-rule="evenodd" d="M14.996 4.005c1.336.005 2.004.671 2.004 2v3.008l3.403-1.203c.506-.176.898-.176 1.175 0 .278.176.419.476.422.901v6.676c.017.354-.124.62-.422.797-.298.177-.645.207-1.04.09L17 15.004v3.001c0 1.334-.667 2-2 2H4.014c-1.343 0-2.014-.666-2.014-2V6.018c0-1.337.672-2.008 2.015-2.013 2.015-.007 8.977-.007 10.981 0zm-4.996 11H6c-.667-.007-1 .325-1 .995 0 .67.333 1.005 1 1.005h4c.667 0 1-.335 1-1.005 0-.67-.333-1.002-1-.995z"/>
</svg>
